icons/1_Primary/Microsoft.svg

<svg width="1024" height="1024" viewBox="0 0 1024 1024" fill="none" xmlns="http://www.w3.org/2000/svg">
<g clip-path="url(#clip0_2_2808)">
<path d="M512 1024C794.77 1024 1024 794.77 1024 512C1024 229.23 794.77 0 512 0C229.23 0 0 229.23 0 512C0 794.77 229.23 1024 512 1024Z" fill="#56595B"/>
<path d="M501.4 723.3H300.7V522.6H501.4V723.3ZM723.3 723.3H522.6V522.6H723.3V723.3ZM501.4 501.4H300.7V300.7H501.4V501.4ZM723.3 501.4H522.6V300.7H723.3V501.4Z" fill="white"/>
</g>
<defs>
<clipPath id="clip0_2_2808">
<rect width="1024" height="1024" fill="white"/>
</clipPath>
</defs>
</svg>

<svg xmlns="http://www.w3.org/2000/svg" width="1024" height="1024" fill="none">
   <g clip-path="url(#a)">
      <path fill="#56595B" d="M512 1024c282.77 0 512-229.23 512-512S794.77 0 512 0 0 229.23 0 512s229.23 512 512 512Z"/>
      <path fill="#fff" d="M501.4 723.3H300.7V522.6h200.7v200.7Zm221.9 0H522.6V522.6h200.7v200.7ZM501.4 501.4H300.7V300.7h200.7v200.7Zm221.9 0H522.6V300.7h200.7v200.7Z"/>
   </g>
   <defs>
      <clipPath id="a">
         <path fill="#fff" d="M0 0h1024v1024H0z"/>
      </clipPath>
   </defs>
</svg>
